X:359
T:The Five-minute Phoenix
C:Colin Hume (arr.), 2020
L:1/4
M:2/2
R:Reel
Q:1/2=126
%%score 1|4
K:G
%%textfont Verdana-Bold 15
%%begintext
This is not intended for dancing to!  See colinhume.com/inst0.htm#FiveMinute
Variations on the country dance tune "The Phoenix" published by John Playford in 1670.
The first two bars mimic the excellent 1970's recording by the band Orange and Blue,
still used by folk dance clubs in England.
After that many strange things happen, including a snatch of Tchaikovsky's 1812 Overture.
%%endtext
%%vskip 24
V:1
%%MIDI program 21     Accordion
"^Accordion" GD B,G, | D/E/F/G/ A2 | _B=F D_B, | =F/G/A/_B/ c2 | [Q: 1/2=123] dA FD | [Q: 1/2=117] _ec G_E | [Q: 1/2=112] ec ec | [Q: 1/2=106] =fd ^fd |
V:2
Z8 |
V:3
Z8 |
V:4 bass octave=-2
%%MIDI gchord z2czz2cz
%%MIDI program 33     Electric Bass (finger)
%%MIDI chordprog 25   Acoustic Guitar (steel)
"^Bass & guitar" "G"Gz Gz | "D"dz f"F7"=f | "Bb"_Bz Bz | "F"=Fz Az | [I:MIDI=gchord cz5cz] "D"dz z2 | "Cm"cz zg | [I:MIDI=gchord cz3cz3] "C7"cg cg | "Dm"da "D7"da |
N:Replace by blank line and X field
T:String Quartet
C:Colin Hume (arr.), 2020
L:1/4
M:2/2
R:Reel
Q:1/2=100
%%score 1|2|3|4
K:G
%%textfont Verdana-Bold 15
%%begintext
This section gives the original tune in the first violin.  Second time through the
cello gets the tune, then a harpsichord interrupts and a general conversation ensues.
%%endtext
V:1
%%MIDI gchordoff
%%MIDI program 40     Violin
%%MIDI control 10 0  Left speaker
|: "^Violin 1" gd BG | d/e/f/g/ af | g/a/b ag | fe/f/ g2 :|
V:2
%%MIDI gchordoff
%%MIDI program 40     Violin
%%MIDI control 10 50
|: "^Violin 2" BG DD | F/G/A/B/ cA | Be ce | Ac B2 :|
V:3 alto octave=-1
%%MIDI gchordoff
%%MIDI program 41     Viola
%%MIDI control 10 100
|: "^Viola" dB GB | AF DA | eg ea | d4 :|
V:4 bass octave=-2
%%MIDI gchordoff
%%MIDI program 42     Cello
%%MIDI control 10 127    Right speaker
|: "^Cello" "G"GB dg | "D"dA FD | "Em"Ee "Am"Ac | "D"dA "G"G2 :|
V:1
|: gd BG | G/A/B/c/ dB | e/c/d/B/ c/A/B/G/ | FE/F/ Gz :|
V:2
|: BG DD | DE =F2 | EG DG | DF D2 :|
V:3
|: dB GB | B/A/G B/A/G | c/A/B/G/ A/F/G/E/ | A2 B2 :|
V:4
|: "G"GB dg | "G"dB "G7"G2 | "C"c"G"B "D"D"Em"E | "D7"DD "G"G2 :|
V:1
%%MIDI program 45     Pizzicato Strings
|: !f!dd zd | dd zd | ez az | dc Bz :|
V:2
%%MIDI program 45     Pizzicato Strings
|: !f! GG zG | FF zF | Gz ez | DD Dz :|
V:3
%%MIDI program 45     Pizzicato Strings
|: !f! BB zB | AA zA | Bz cz | AA Bz :|
V:4
|: "G"gd BG | "D"d/e/f/g/ af | "Em"g/a/b "Am"ag | "D"fe/f/ "G"g2 :|
V:1
d z3 | dB GB | c/A/B/G/ A/F/G/E/ | Ad gz |
V:2
G z3 | GE DD | Gz Az | AA Bz |
V:3
B z3 | Bd BG | cz ez | dd dz |
V:4
"G"gd BG | "G"G/A/B/c/ "G7"dB | "C"e/c/"G"d/B/ "D"c/A/"Em"B/G/ | "D7"F E/F/ "G"Gz |
V:1
%%MIDI control 10 50
!mf! dd ed | "^Harpsichord" [I:MIDI=program 6] [Bdg][GBd] [DGB][B,DG] | e/c/d/B/ c/A/B/G/ | A/F/G/E/ F/D/E/C/ |
V:2
%%MIDI control 10 64
!mf! GF GG | "^Harpsichord" Z |[I:MIDI=program 6] GF ED | CB, A,G, |
V:3 %CAH
%%MIDI control 10 78
!mf! BA EE |\
V:3 bass octave=-2
"^Harpsichord" Z | [I:MIDI=program 6] "C"c'b "Am"ag | "D"fe dc |
V:4
"G"gd BG | "G"G/A/B/c/ "G7"dB | "C"c"G"B "Am"A/B/"Em"A/E/ | DDDD |
V:1
[B,D][DG] [GB][Bd] |[Ac]/[GB]/[FA]/[EG]/ [DF][Ac] |[GB]/[FA]/[EG]/[DF]/ [CE]F/G/ | A/G/F/E/ DE/F/ |
V:2
G,B, DG | A,2 A,2 | B,2 A,2 | FF FF |
V:3
"G"B2 G2 | "Am"A2 "D"df | "Em"e2 "Am"A2 | "D"dd [da][da] |
V:4
X4 |
V:1
!arpeggio! [G,B,DG]2 z2 | e/c/d/B/ c/A/B/^G/ | !arpeggio! [A,^CEA]2 z2 | f/d/e/^c/ d/B/c/^A/ |
V:2 bass octave=-2
"G"Z | "C"[c'g']"G"[bg'] "Am"[ae']"E7"[^ge'] | "A"Z | "D"[d'a']"A"[^c'a'] "Bm"[bf']"F#7"[^a^f'] |
V:3 treble octave=0
%%MIDI program 73     Flute
%%MIDI control 10 0  Left speaker
"^Flute" g/z/d/z/ B/z/G/z/ | Z | Z2 |
V:4 treble octave=0
%%MIDI program 68     Oboe
%%MIDI control 10 127    Right speaker
Z2 | "^Oboe" a/z/e/z/ ^c/z/A/z/ | Z |
V:1
!arpeggio! [B,^DFB]z [^DB]/[B,F]/[E^G]/[B,E]/ | !arpeggio! [B,=DFB]z [=DB]/[B,F]/[E^G]/[B,E]/ |[CE]/[DF]/[CE]/[DF]/ [CE]z |[^CE]/[DF]/[CE]/[DF]/ [CE]z |
V:2
"B"z2 B/^d/B/^g/ | "Bm"z2 B/=d/B/^g/ | "C"c/z/ z3 | "A"A/z/ z3 |
V:3
b/z/f/z/ ^d/z/B/z/ | Z | c'/z/g/z/ z2 | ^c'/z/a/z/ z2 |
V:4
Z | b/z/f/z/ d/z/B/z/ | z2 e/z/c/z/ | z2 e/z/^c/z/ |
V:1
%%MIDI gchordon
%%MIDI gchord c
%%MIDI chordprog 48     String Ensemble 1
"D"!arpeggio! [DFAd]4 | !arpeggio! [DFAd]4 | !arpeggio! [DFAd]4 | !arpeggio! [DFAd]4 |
V:2
Z4 |
V:3
Td'4 | Td'4 | Td'4 | Td'4 |
V:4
%%MIDI program 58     Tuba
%%MIDI control 10 127    Right speaker
"^Tuba" d'a fd/z/ | dA FD/z/ |\
V:4 bass octave=-2
d'a fd/z/ | dA FD |
V:1
%%MIDI gchordoff
z2 [Fd]/[Ge]/[Af]/[Bg]/ |[ca]4 | z2 [Fd]/[Ge]/[Af]/[Bg]/ |[ca]4 |
V:2
Z4 |
V:3
Z4 |
V:4
Dz3 | Cz3 | B,z3 | A,z3 |
N:Replace by blank line and X field
T:Waltz
C:Colin Hume (arr.), 2020
L:1/4
M:3/4
R:Waltz
%%MIDI beat 100 95 80
%%score 1|2|3|4
K:G
%%textfont Verdana-Bold 15
%%begintext
A German oom-pah band proves that the tune can also be played as a waltz.
%%endtext
V:1 treble
Q:1/4=150
%%MIDI program 56     Trumpet
%%MIDI control 10 64  Central
V:2 bass octave=-2
%%MIDI program 57     Trombone
%%MIDI control 10 0   Left speaker
V:3 bass octave=-2
%%MIDI gchordoff
%%MIDI program 58     Tuba
%%MIDI control 10 127    Right speaker
V:4 treble octave=1
%%MIDI program 72     Piccolo
%%MIDI control 10 40
V:1
|: "^Trumpet" GDD | B,G,G, | D3/E/ F/G/ | A2F | GAB | A2G | FEF | G2 (3D/E/F/ :|
V:2
|: "^Trombone" z[dgb][dgb] | z[Bdg][Bdg] | z[dfa][dfa] | z[fad'][fad'] | z[gbd'][gbd'] | z[fad'][fad'] | z[dfa][dfa] | z[gbd'][gbd'] :|
V:3
|: "^Tuba" "G"G,z2 | G,z2 | "D"Dz2 | Dz2 | "G"G,z2 | "D"Dz2 | DEF | "G"Gz2 :|
V:4
|: X8 :|
V:1
|: GD/E/D/C/ | B,/A,/G,2 | G,3/A,/ B,/C/ | D2B, | EC2 | DB,G, | F,E,F, | G,2D :|
V:2
|: z[dgb][dgb] | z[Bdg][Bdg] | z[dg][dg] | z2[dg] | z[eg][eg] | z[gb][gb] | z[Ad][Ad] | z[Bd][Bd] :|
V:3
|: "G"GzD | GzD | GzD | GAB | "C"czG | "G"BzG | "D"DEF | "G"Gz2 :|
V:4
|: X8 :|
V:1
%%MIDI program 65     Alto Sax
%%MIDI control 10 40
|: "^Alto sax" GDD | B,G,G, | D3/E/ F/G/ | A2F | GAB | A2G | FEF | G2d :|
V:2
%%MIDI program 66     Tenor Sax
|: !mp! "^Tenor sax" z[dgb][dgb] | z[Bdg][Bdg] | z[dfa][dfa] | z[fad'][fad'] | z[gbd'][gbd'] | z[fad'][fad'] | z[dfa][dfa] | z[gbd'][gbd'] :|
V:3
%%MIDI program 67     Baritone Sax
|: "^Baritone sax" "G"Gz2 | Gz2 | "D"Dz2 | DEF | "G"Gz2 | "D"Dz2 | DEF | "G"Gz2 :|
V:4
|: !f! "^Piccolo" G/F/G/A/B/c/ | d/g/dB | c/e/cA | F/G/A/B/c/A/ | B/c/d/g/d/B/ | A/B/c/e/c/A/ | d/e/d/c/B/A/ | G2z :|
V:1
|: GD/E/D/C/ | B,/A,/G,2 | G,3/A,/ B,/C/ | D2B, | EC2 | DB,G, | F,E,F, |1 G,2 E/F/ :|2 |
V:2
|: z[dgb][dgb] | z[Bdg][Bdg] | z[dg][dg] | z2[dg] | z[eg][eg] | z[gb][gb] | z[Ad][Ad] |1 z[Bd][Bd] :|2 |
V:3
|: "G"GzD | GzD | GzD | GAB | "C"czG | "G"BzG | "D"DEF |1 "G"Gz2 :|2 |
V:4
|: B/^A/BG | D/B,/D/G/B | d/^c/dB | G/d/g/=f/e/d/ | c/B/c/d/e/c/ | B/^A/B/c/d/B/ | A/e/d/c/B/A/ |1 GzG/A/ :|2 |
N:Replace by blank line and X field
T:Strathspey
C:Colin Hume (arr.), 2020
L:1/4
M:4/4
R:Strathspey
%%MIDI beat 100 95 80
Q:1/2=64
%%score 1|2|3|4
%%MIDI ratio 3 1
K:G
%%textfont Verdana-Bold 15
%%begintext
A Scottish band turns the tune into a Strathspey.
In the reprise a fairly unconvincing bagpipe plays a counter-melody.

%%endtext
V:1 treble
%%MIDI program 22     Harmonica
%%MIDI chordprog 109  Bagpipe
%%MIDI chordvol 40
%%MIDI gchord c
%%MIDI control 10 64 %Central
Q:1/2=64
%%MIDI gchordon
|: "^Harmonica!" "G"g d/>c/ B/<G/ G | d/>e/ f/<g/ a (3d/e/f/ | g b/>g/ a/>g/ f/>e/ |1 d f g (3d/e/f/ :|2 d f g z |
V:2 treble
%%MIDI program 3      Honky-tonk Piano
%%MIDI gchord z2czz2cz
%%MIDI gchordon
%%MIDI control 10 0  Left speaker
|: "^Piano" "G"Z | "D"Z | "G"z2 "A7"z2 |1 "D"z "D7"z "G"z2 :|2 "D"z "D7"z "G"z2 |
V:3 bass octave=-2
%%MIDI program 35     Fretless Bass
%%MIDI control 10 127    Right speaker
|: "^Fretless bass" Gz Bz | dc BA | Gz A^c |1 dD Gz :|2 dD Gz |
V:4 treble octave=0
%%MIDI program 66     Tenor Sax
%%MIDI control 10 40
|: X3 |1 X :|2 X |
V:1
|: g d/>c/ B B/>A/ | G/>A/ B/<c/ dG | e/<c/ d/>B/ c/<A/ B/>G/ | F/<D/ E/>F/ G (3d/e/f/ :|
V:2
|: "G"z3 "D"z | "Em"z2 "G7"z2 | "C"z "G"z "Am"z "G"z | "D"z "D7"z "G"z2 :|
V:3
|: Gd gf | ee gG | cB AG | dD Gz :|
V:4
|: X4 :|
V:1
%%MIDI program 60     French Horn
%%MI|DI gchordoff
|: "^French horn" !mp! g d/>c/ B/<G/ G | d/>e/ f/<g/ a (3d/e/f/ | g b/>g/ a/>g/ f/>e/ | d f g z :|
V:2
|: "G"Z | "D"Z | "G"z2 "A7"z2 | "D"z "D7"z "G"z2 :|
V:3
|: Gz Bz | dc BA | Gz A^c | dD Gz :|
V:4
|: "^Tenor sax" g g/>a/ b/>a/ b/<d'/ | d d/>e/ f/>e/ f/<a/ | b/<g/ g/>B/ ^c/>e/a/>g/ | f/<d/d/>c/ BG :|
V:1
|: g d/>c/ B B/>A/ | G/>A/ B/<c/ dG | e/<c/ d/>B/ c/<A/ B/>G/ | F/<D/ E/>F/ Gd :|
V:2
|: "G"z3 "D"z | "Em"z2 "G7"z2 | "C"z "G"z "Am"z "G"z | "D"z "D7"z "G"z2 :|
V:3
|: Gd gf | ee gG | cB AG | dD Gz :|
V:4
|: G G/>A/ Bd | ee =f2 | g f/>g/ ab | c'a g2 :|
N:Replace by blank line and X field
T:Klezmer
C:Colin Hume (arr.), 2020
L:1/4
Q:1/4=120
M:2/2
R:Reel
%%MIDI chordname dim 0 3 6 9
K:G
V:1
%%MIDI program 71     Clarinet
%%MIDI gchordoff
"^Clarinet" !mf! gd BG | gd _BG | g_e _BG | ge ^c^A |
V:2
%%MIDI program 21     Accordion
%%MIDI chordprog 21   Accordion
%%MIDI gchord cccccccccccccccc
%%MIDI control 10 64 %Central
!f! "^Accordion" "G"G3_A/F/ | "Gm"G3=F/E/ | "Eb"_E3E/D/ | "Dbdim"_D-[_B,D]-[G,_B,DE]2 |
V:3
X4 |
V:4
X4 |
V:1
B/c/B ^AB | ba g^d | cB ^dc | B4- | B3 (3B/^c/^d/ |
V:2 bass
"B7"BA ^F^D | [B,,^D,F,A,] [I:MIDI=gchordoff] {B,,C,}B,,- B,,{B,,C,}B,,- | B,,{B,,C,}B,,- B,,z | [I:MIDI=gchordon] [I:MIDI=gchord cczccczc] [B,,B,]2 [A,,A,]2 | [G,,G,]2 [F,,F,]z |
V:3
X5 |
V:4
X5 |
V:1
|: eB GE | B/^/c/^d/e/ fd | e/f/g fe | ^d=c/d/ e2 :|
V:2 octave=-2
|: "Em"e/^d/e/B/ e/B/G/B/ | "B7"^d/B/A/B/ d/g/f/b/ | "Em"g/e/^c/e/ "Am"a/b/=c'/a/ | "B7"b/a/f/a/ "Em"e/g/f/g/ :|
V:3
|: X4 :|
V:4
|: X4 :|
V:1
|: eB ^GE | E/=F/^G/A/ Bc | d/B/c/A/ B/^G/A/=F/ | E=F/^G/ A2 :|
V:2
|: "E7"e/^d/e/B/ e/B/^G/B/ | ^G/A/B/c/ d/e/=f/e/ | "Dm"d/=f/"Am"e/c/ "E7"d/e/"Dm6"d/B/ | "E7"^G/A/B/d/ "Am"e/c/B/A/ :|
V:3
|: X4 :|
V:4
|: X4 :|
V:1
[_Bd]/[ce]/[d=f]/[eg]/ [fa]2 |[Ec]/[=Fd]/[Ge]/[A=f]/ [_Bg]2 | !f! [d^f]/ |
V:2
[I:MIDI=gchordoff] !p! "Bb"[_B=f]2 "Dm"[da]2 | "C"[ceg]4 | [I:MIDI=gchordon] !f! "D"[dd']/ |
V:3
X2 | x/ |
V:4
X2 | x/ |
N:Replace by blank line and X field
T:1812
C:Tchaikovsky (fragment)
L:1/4
M:3/4
R:Triple-time
%%MIDI beat 100 95 80
Q:1/2=40
K:D
%%textfont Verdana-Bold 15
%%begintext
Nothing like a bit of Tchaikovsky's 1812 Overture to add even more drama to the piece!

%%endtext
% %score 1|2|3|4
V:1
%%MIDI gchordoff
%%MIDI program 40     Violin
%%MIDI control 10 0  Left speaker
!f! "^Violin 1" z/4g/4a/4b/4 =c'/4d'/4e'/4f'/4 g'/4a'/4g'/4f'/4 | e'/4f'/4e'/4d'/4 ^c'/4d'/4c'/4b/4 a/4b/4a/4g/4 | f/4g/4f/4e/4 d/4e/4d/4c/4 B/4c/4B/4A/4 |
V:2
%%MIDI gchordoff
%%MIDI program 40     Violin
%%MIDI control 10 42
!f! "^Violin 2" z/4d/4e/4f/4 g/4a/4b/4=c'/4 d'/4e'/4d'/4^c'/4 | b/4c'/4b/4a/4 g/4a/4g/4f/4 e/4f/4e/4d/4 | c/4d/4c/4B/4 A/4B/4A/4G/4 F/4F/4F/4F/4 |
V:3 alto octave=-1
%%MIDI gchordoff
%%MIDI program 41     Viola
%%MIDI control 10 84
!f! "^Viola" z/4B/4=c/4d/4 e/4f/4g/4a/4 b/4c'/4b/4a/4 | g/4a/4g/4f/4 e/4f/4e/4d/4 ^c/4d/4c/4B/4 | A/4B/4A/4G/4 F/4G/4F/4E/4 E/4F/4E/4D/4 |
V:4 bass octave=-2
%%MIDI gchordoff
%%MIDI program 42     Cello
%%MIDI control 10 127    Right speaker
!f! "^Cello" z/4B/4c/4=d/4 e/4f/4g/4a/4 b/4=c'/4b/4a/4 | g/4a/4g/4f/4 e/4f/4e/4d/4 c/4d/4c/4B/4 | A/4B/4A/4G/4 F/4G/4F/4E/4 D/4D/4D/4D/4 |
N:Replace by blank line and X field
T:Finale
C:Colin Hume (arr.), 2020
L:1/4
M:2/2
R:Reel
Q:1/2=75
%%MIDI chordname dim 0 3 6 9
K:G
%%textfont Verdana-Bold 15
%%begintext
The grand finale - Playford meets Tchaikovsky!  I've put in the bells but not the canon and mortar effects.

%%endtext
V:1 octave=0
Q:1/2=80
%%MIDI control 10 42
%%MIDI program 82     Lead 3 (calliope)
%%MIDI gchordoff
|: !mf! "^Calliope" (3BAB (3dBd | (3ede (3_ede | (3d_ba (3gfg | (3f_ed (3cde |
V:2 octave=0
%%MIDI control 10 0  Left speaker
%%MIDI program 56     Trumpet
%%MIDI chordprog 52   Choir Aahs
%%MIDI chordvol 70
%%MIDI gchord c
|: !mf! "^Trumpet" "G"G2 "Bm"D2 | "Em"B,2 "Dm6"G,2 | "Daug"DE FG | "Cdim"A2 F2 |
V:3 octave=0
%%MIDI control 10 127    Right speaker
%%MIDI program 14     Tubular Bells
%%MIDI gchordoff
|: !mf! "^Tubular Bells" "G"G2 "Bm"D2 | "Em"B,2 "Dm6"G,2 | "Daug"DE FG | "Cdim"A2 F2 |
V:4 bass octave=-2
%%MIDI gchordoff
%%MIDI program 61     Brass Section
%%MIDI control 10 84
|: !mf! "^Brass Section" [Gdb]2 [Bfb]2 |[EBg]2 [CG_ea]2 | [df^a]4 |[cf^d']4 |
V:1
(3=ege (3ege | (3_ecB (3ABc | (3^d^cB (3fed | (3eBA (3GAB :|
V:2
"Em"GA B2 | "Cm6"A2 G2 | "B7"F2 EF | "Em"G4 :|
V:3
"Em"GA B2 | "Cm6"A2 G2 | "B7"F2 EF | "Em"G4 :|
V:4
[egb]4 |[cga_e']4 | [B^dfa]4 |[EBeg]4 :|
V:1
(3BGA (3Bcd | (3gdc (3BAG | (3eBe (3eBe | (3dBd (3dBd |
V:2
"G"G2 D2 | B,2 G,2 | "Em"G,A, B,c | "G7"D2 G2 |
V:3
"G"G2 D2 | B,2 G,2 | "Em"G,A, B,c | "G7"D2 G2 |
V:4 treble octave=0
%%MIDI control 10 45
[G,,-G,-GBd] [G,,-G,-G-Ac] [G,,-G,-DGB] [G,,G,B,DG] |[F,,-F,-GBd] [F,,-F,-G-Ac] [F,,-F,-DGB] [F,,F,B,DG] |\
[E,,-E,-E-GB] [E,,-E,-EFA] [E,,-E,-B,EG] [E,,E,EGB] |[G,,-G,-=FBd] [G,,-G,-F-Ac] [G,,-G,-DF-GB] [G,,G,B,DFG] |
V:1
(3cde (3Bcd | (3ABc (3GAB | (3Ade (3fdf | (3afa d'2 | g'4 |]
V:2
"C"EC "G"DB, | "Am"CA, "Em"B,G, | "D7"F,4- | F,2 G,2 | "G"[G,B,DG]4 |]
V:3
"C"EC "G"DB, | "Am"CA, "Em"B,G, | "D7"F,4- | F,2 G,2 | "G"[G,B,DG]4 |]
V:4
[C,CGce]2 [B,,B,GBd]2 | [A,,A,EAc]2 [E,,-E,-E-G-B] [E,,E,EGc] | [D,,D,DFAd]2 (3[C,,C,DFAd] [C,,C,DFAd] [C,,C,DFAd] | [B,,,B,,DFAd]2 [A,,,A,,DFAd]2 |\
[G,,,G,,G,DGBdg]4 |]

